src/img/bikos-logo.svg

<svg width="161" height="37" viewBox="0 0 161 37" fill="none" xmlns="http://www.w3.org/2000/svg">
<g clip-path="url(#clip0)">
<path d="M0.282636 36.3168C0.0770827 36.1143 0 35.8866 0 35.6082V8.80723C0 8.50354 0.102777 8.25046 0.282636 8.07331C0.462496 7.87085 0.719438 7.79492 1.00207 7.79492H13.1297C16.3929 7.79492 18.8339 8.50354 20.4526 9.92078C22.0713 11.338 22.8679 13.2614 22.8679 15.691C22.8679 17.1082 22.5081 18.323 21.8144 19.3353C21.095 20.3476 20.2727 21.0562 19.3221 21.4864C20.504 22.0179 21.4804 22.8531 22.2769 24.0425C23.0734 25.232 23.4845 26.5733 23.4845 28.0665C23.4845 30.6226 22.6109 32.6725 20.8637 34.2416C19.1165 35.8107 16.6499 36.5952 13.5152 36.5952H1.00207C0.719438 36.5952 0.48819 36.494 0.282636 36.3168ZM12.3589 19.5884C13.7721 19.5884 14.877 19.234 15.6478 18.5507C16.4186 17.8674 16.804 16.9563 16.804 15.7922C16.804 14.628 16.4186 13.7423 15.6735 13.1096C14.9283 12.4769 13.8235 12.1732 12.3846 12.1732H5.88398V19.5884H12.3589ZM12.7957 32.1916C14.2346 32.1916 15.3651 31.812 16.1874 31.0275C16.9839 30.2429 17.395 29.2559 17.395 28.0412C17.395 26.8264 16.9839 25.8394 16.1617 25.0548C15.3395 24.2703 14.2089 23.8907 12.7957 23.8907H5.88398V32.1916H12.7957V32.1916Z" fill="white"/>
<path d="M29.1371 11.4137C28.9316 11.2112 28.8545 10.9835 28.8545 10.7051V7.69346C28.8545 7.38977 28.9573 7.13669 29.1371 6.95954C29.3427 6.75708 29.5739 6.68115 29.8566 6.68115H33.7107C34.019 6.68115 34.276 6.78238 34.4558 6.95954C34.6614 7.162 34.7385 7.38977 34.7385 7.69346V10.7051C34.7385 10.9835 34.6357 11.2112 34.4301 11.4137C34.2246 11.6162 33.9676 11.6921 33.7107 11.6921H29.8566C29.5739 11.6921 29.3427 11.5909 29.1371 11.4137ZM29.317 36.3166C29.1114 36.1141 29.0344 35.8864 29.0344 35.608V16.1716C29.0344 15.8679 29.1371 15.6401 29.317 15.463C29.5225 15.2858 29.7538 15.1846 30.0364 15.1846H33.5822C33.8649 15.1846 34.0961 15.2858 34.3017 15.463C34.5072 15.6654 34.5843 15.8932 34.5843 16.1716V35.608C34.5843 35.8864 34.4815 36.1141 34.3017 36.3166C34.0961 36.519 33.8649 36.595 33.5822 36.595H30.0364C29.7281 36.595 29.4968 36.4937 29.317 36.3166Z" fill="white"/>
<path d="M41.2387 36.3165C41.0331 36.114 40.9561 35.8862 40.9561 35.6078V8.37665C40.9561 8.07296 41.0588 7.84519 41.2387 7.66803C41.4442 7.49088 41.6755 7.38965 41.9581 7.38965H45.4269C45.7095 7.38965 45.9407 7.49088 46.1463 7.66803C46.3518 7.8705 46.4289 8.09827 46.4289 8.37665V22.4478L53.3664 15.8931C53.4435 15.8425 53.5719 15.7412 53.7518 15.5894C53.9316 15.4375 54.1115 15.3363 54.2657 15.2857C54.4455 15.2351 54.6511 15.2098 54.8823 15.2098H58.8392C59.1219 15.2098 59.3531 15.2857 59.5073 15.4628C59.6615 15.64 59.7642 15.8425 59.7642 16.1208C59.7642 16.3739 59.6358 16.627 59.3531 16.8548L50.8226 24.8014L60.3809 35.0005C60.6378 35.2535 60.7663 35.4813 60.7663 35.7091C60.7663 35.9875 60.6892 36.2152 60.5094 36.3671C60.3295 36.5189 60.124 36.6202 59.8927 36.6202H55.833C55.4476 36.6202 55.165 36.5695 54.9851 36.4683C54.8052 36.3671 54.574 36.1899 54.2914 35.9115L46.4032 27.6359V35.6078C46.4032 35.8862 46.3005 36.114 46.1206 36.3165C45.915 36.5189 45.6838 36.5949 45.4012 36.5949H41.9324C41.6755 36.5949 41.4442 36.4936 41.2387 36.3165Z" fill="white"/>
<path d="M66.0854 34.5452C64.3125 32.9002 63.3361 30.6225 63.2076 27.7121L63.1562 25.8899L63.2076 24.0677C63.3361 21.1827 64.3125 18.905 66.1368 17.2599C67.9354 15.5896 70.4791 14.7798 73.6909 14.7798C76.9027 14.7798 79.395 15.6149 81.2193 17.2599C83.0179 18.9303 83.9943 21.1827 84.1484 24.0677C84.1741 24.3968 84.1998 25.0041 84.1998 25.8899C84.1998 26.7757 84.1741 27.3831 84.1484 27.7121C84.02 30.6225 83.0436 32.9002 81.2707 34.5452C79.4978 36.1902 76.9797 37.0253 73.7166 37.0253C70.402 37 67.8583 36.1902 66.0854 34.5452ZM77.1082 31.4829C77.9047 30.5719 78.3158 29.2559 78.3929 27.4843C78.4186 27.2059 78.4443 26.6745 78.4443 25.8899C78.4443 25.1054 78.4186 24.5486 78.3929 24.2955C78.3415 22.5493 77.9047 21.208 77.1082 20.2716C76.3117 19.3605 75.1811 18.905 73.7166 18.905C72.252 18.905 71.0958 19.3605 70.2992 20.2716C69.5027 21.1827 69.0659 22.524 69.0145 24.2955L68.9631 25.8899L69.0145 27.4843C69.0659 29.2305 69.5027 30.5719 70.2992 31.4829C71.0958 32.394 72.252 32.8496 73.7166 32.8496C75.1554 32.8496 76.3117 32.394 77.1082 31.4829Z" fill="white"/>
<path d="M92.5241 36.0633C91.1109 35.4306 90.0574 34.6967 89.3637 33.8615C88.67 33.0264 88.3359 32.2925 88.3359 31.7104C88.3359 31.432 88.4387 31.2042 88.6186 31.0524C88.7984 30.8752 89.004 30.7993 89.2609 30.7993H92.6783C92.9095 30.7993 93.0894 30.9005 93.2692 31.1283C93.3977 31.2295 93.7317 31.5079 94.2199 31.9128C94.7081 32.3178 95.2734 32.6468 95.89 32.8745C96.5067 33.1023 97.2004 33.2289 97.9456 33.2289C99.0504 33.2289 99.9754 33.0264 100.669 32.5962C101.363 32.1659 101.723 31.5585 101.723 30.774C101.723 30.2172 101.568 29.787 101.234 29.4327C100.926 29.0784 100.335 28.7747 99.5129 28.4963C98.6907 28.2179 97.4574 27.8889 95.8129 27.5346C93.4491 27.0284 91.7019 26.2945 90.5713 25.2822C89.4408 24.2699 88.8755 22.9286 88.8755 21.2583C88.8755 20.17 89.2095 19.1324 89.8776 18.1454C90.5456 17.1837 91.5477 16.3739 92.8581 15.7665C94.1685 15.1591 95.7616 14.8301 97.6115 14.8301C99.5129 14.8301 101.132 15.1338 102.493 15.7159C103.855 16.2979 104.883 17.0065 105.602 17.8417C106.322 18.6769 106.656 19.3855 106.656 20.0182C106.656 20.2713 106.553 20.4737 106.373 20.6509C106.193 20.828 105.988 20.9293 105.731 20.9293H102.596C102.288 20.9293 102.057 20.828 101.877 20.6003C101.671 20.4737 101.363 20.2206 100.926 19.841C100.489 19.4614 100.001 19.183 99.4872 18.9553C98.9476 18.7275 98.3053 18.6262 97.5602 18.6262C96.5324 18.6262 95.7359 18.854 95.1706 19.2843C94.6053 19.7145 94.3227 20.2966 94.3227 21.0052C94.3227 21.5113 94.4512 21.9163 94.7081 22.2453C94.965 22.5743 95.5046 22.878 96.3268 23.1817C97.1233 23.46 98.3567 23.7637 99.9497 24.0674C104.96 25.0291 107.478 27.1803 107.478 30.5209C107.478 32.4696 106.63 34.0387 104.909 35.2535C103.187 36.4683 100.798 37.0756 97.74 37.0756C95.7102 36.9997 93.9373 36.696 92.5241 36.0633Z" fill="white"/>
<path d="M156.889 23.7641L148.718 15.7162C148.179 15.1847 148.179 14.3496 148.718 13.8181L150.517 12.0465C151.056 11.5151 151.904 11.5151 152.444 12.0465L160.615 20.0944C161.154 20.6259 161.154 21.461 160.615 21.9925L158.816 23.7641C158.276 24.2955 157.403 24.2955 156.889 23.7641Z" fill="white"/>
<path d="M131.144 23.8144L129.345 22.0428C128.806 21.5114 128.806 20.6762 129.345 20.1448L144.017 5.69401C144.556 5.16254 145.404 5.16254 145.944 5.69401L147.742 7.46555C148.282 7.99702 148.282 8.83217 147.742 9.36364L133.071 23.8144C132.531 24.3459 131.683 24.3459 131.144 23.8144Z" fill="white"/>
<path d="M133.019 36.6205L141.19 28.5726C141.729 28.0412 141.729 27.206 141.19 26.6745L139.391 24.903C138.852 24.3715 138.004 24.3715 137.464 24.903L129.293 32.9509C128.754 33.4823 128.754 34.3175 129.293 34.8489L131.092 36.6205C131.632 37.152 132.479 37.152 133.019 36.6205Z" fill="white"/>
<path d="M158.765 36.5698L160.564 34.7982C161.103 34.2668 161.103 33.4316 160.564 32.9001L145.892 18.4494C145.352 17.9179 144.505 17.9179 143.965 18.4494L142.166 20.2209C141.627 20.7524 141.627 21.5875 142.166 22.119L156.838 36.5698C157.377 37.1012 158.225 37.1012 158.765 36.5698Z" fill="white"/>
<path d="M77.0067 11.2114H80.9379C81.7087 11.2114 82.0684 10.3003 81.5289 9.79412L71.3026 0.22777C70.9685 -0.0759234 70.4804 -0.0759234 70.1463 0.22777L59.92 9.79412C59.3805 10.3003 59.7402 11.2114 60.511 11.2114H64.4422C65.1103 11.2114 65.7269 10.9583 66.2151 10.5027L70.7373 6.27633L75.2595 10.5027C75.722 10.9836 76.3386 11.2114 77.0067 11.2114Z" fill="white"/>
</g>
<defs>
<clipPath id="clip0">
<rect width="161" height="37" fill="white"/>
</clipPath>
</defs>
</svg>

<svg width="161" height="37" fill="none" xmlns="http://www.w3.org/2000/svg"><g clip-path="url(#clip0)" fill="#fff"><path d="M.283 36.317c-.206-.203-.283-.43-.283-.709v-26.8c0-.304.103-.558.283-.735.18-.202.436-.278.72-.278H13.13c3.263 0 5.704.709 7.323 2.126 1.618 1.417 2.415 3.34 2.415 5.77 0 1.417-.36 2.632-1.054 3.644-.719 1.013-1.541 1.721-2.492 2.151 1.182.532 2.158 1.367 2.955 2.556.796 1.19 1.207 2.531 1.207 4.024 0 2.557-.873 4.607-2.62 6.176-1.748 1.569-4.214 2.353-7.349 2.353H1.002c-.283 0-.514-.101-.72-.278zm12.076-16.729c1.413 0 2.518-.354 3.289-1.037.77-.684 1.156-1.595 1.156-2.759s-.385-2.05-1.13-2.682c-.746-.633-1.85-.937-3.29-.937h-6.5v7.415h6.475zm.437 12.604c1.439 0 2.57-.38 3.391-1.165.797-.784 1.208-1.771 1.208-2.986 0-1.215-.411-2.202-1.233-2.986-.822-.785-1.953-1.164-3.366-1.164H5.884v8.3h6.912zM29.137 11.414c-.205-.203-.282-.43-.282-.709V7.693c0-.303.102-.556.282-.733.206-.203.437-.279.72-.279h3.854c.308 0 .565.101.745.279.205.202.282.43.282.733v3.012a.95.95 0 01-.308.709.995.995 0 01-.72.278h-3.853c-.283 0-.514-.101-.72-.278zm.18 24.903c-.206-.203-.283-.43-.283-.709V16.172c0-.304.103-.532.283-.709.206-.177.437-.278.72-.278h3.545c.283 0 .514.1.72.278.205.202.282.43.282.709v19.436c0 .278-.103.506-.282.709-.206.202-.437.278-.72.278h-3.546a.975.975 0 01-.719-.278zM41.239 36.316c-.206-.202-.283-.43-.283-.708V8.377c0-.304.103-.532.283-.709.205-.177.437-.278.72-.278h3.468c.282 0 .514.1.72.278.205.202.282.43.282.709v14.07l6.937-6.554a4.82 4.82 0 00.386-.304c.18-.152.36-.253.514-.303.18-.05.385-.076.616-.076h3.957c.283 0 .514.076.668.253.154.177.257.38.257.658 0 .253-.128.506-.41.734L50.822 24.8l9.558 10.2c.257.253.385.48.385.708 0 .278-.077.506-.257.658-.18.152-.385.253-.616.253h-4.06c-.385 0-.668-.05-.848-.152-.18-.1-.411-.278-.694-.557l-7.888-8.275v7.972c0 .278-.102.506-.282.709-.206.202-.437.278-.72.278h-3.469c-.257 0-.488-.101-.693-.279zM66.085 34.545c-1.772-1.645-2.749-3.923-2.877-6.833l-.052-1.822.052-1.822c.128-2.885 1.105-5.163 2.929-6.808 1.798-1.67 4.342-2.48 7.554-2.48 3.212 0 5.704.835 7.528 2.48 1.799 1.67 2.775 3.923 2.93 6.808.025.329.05.936.05 1.822s-.025 1.493-.05 1.822c-.129 2.91-1.105 5.188-2.878 6.833-1.773 1.645-4.291 2.48-7.554 2.48-3.315-.025-5.859-.835-7.632-2.48zm11.023-3.062c.797-.911 1.208-2.227 1.285-3.999.026-.278.051-.81.051-1.594 0-.785-.025-1.341-.051-1.595-.052-1.746-.488-3.087-1.285-4.023-.796-.912-1.927-1.367-3.391-1.367-1.465 0-2.621.455-3.418 1.367-.796.91-1.233 2.252-1.285 4.024l-.05 1.594.05 1.594c.052 1.746.489 3.088 1.285 3.999.797.911 1.953 1.367 3.418 1.367 1.438 0 2.595-.456 3.391-1.367zM92.524 36.063c-1.413-.632-2.467-1.366-3.16-2.202-.694-.835-1.028-1.569-1.028-2.15 0-.279.103-.507.283-.659a.859.859 0 01.642-.253h3.417c.231 0 .411.102.591.33.129.1.463.379.95.784a5.727 5.727 0 001.671.961c.617.228 1.31.355 2.056.355 1.104 0 2.03-.203 2.723-.633.694-.43 1.054-1.037 1.054-1.822 0-.557-.155-.987-.489-1.341-.308-.355-.899-.658-1.721-.937-.822-.278-2.056-.607-3.7-.961-2.364-.507-4.111-1.24-5.242-2.253-1.13-1.012-1.695-2.353-1.695-4.024 0-1.088.334-2.126 1.002-3.113.668-.961 1.67-1.771 2.98-2.378 1.31-.608 2.904-.937 4.754-.937 1.9 0 3.52.304 4.881.886 1.362.582 2.39 1.29 3.109 2.126.72.835 1.054 1.544 1.054 2.176 0 .253-.103.456-.283.633a.881.881 0 01-.642.278h-3.135c-.308 0-.539-.101-.719-.329-.206-.126-.514-.38-.951-.759a5.642 5.642 0 00-1.439-.886c-.54-.227-1.182-.329-1.927-.329-1.028 0-1.824.228-2.39.658-.565.43-.847 1.013-.847 1.721 0 .506.128.911.385 1.24.257.33.797.633 1.619.937.796.278 2.03.582 3.623.885 5.01.962 7.528 3.113 7.528 6.454 0 1.949-.848 3.518-2.569 4.733-1.722 1.214-4.111 1.822-7.169 1.822-2.03-.076-3.803-.38-5.216-1.013zM156.889 23.764l-8.171-8.048a1.316 1.316 0 010-1.898l1.799-1.771a1.364 1.364 0 011.927 0l8.171 8.047a1.316 1.316 0 010 1.898l-1.799 1.772c-.54.532-1.413.532-1.927 0zM131.144 23.814l-1.799-1.771a1.316 1.316 0 010-1.898l14.672-14.451a1.364 1.364 0 011.927 0l1.798 1.772c.54.531.54 1.366 0 1.898l-14.671 14.45a1.364 1.364 0 01-1.927 0zM133.019 36.62l8.171-8.047a1.316 1.316 0 000-1.899l-1.799-1.771a1.364 1.364 0 00-1.927 0l-8.171 8.048a1.316 1.316 0 000 1.898l1.799 1.772c.54.531 1.387.531 1.927 0zM158.765 36.57l1.799-1.772a1.316 1.316 0 000-1.898l-14.672-14.45a1.364 1.364 0 00-1.927 0l-1.799 1.77a1.316 1.316 0 000 1.899l14.672 14.45a1.364 1.364 0 001.927 0zM77.007 11.211h3.93c.772 0 1.131-.91.592-1.417L71.303.228a.848.848 0 00-1.157 0L59.92 9.794c-.54.506-.18 1.417.591 1.417h3.931c.668 0 1.285-.253 1.773-.708l4.522-4.227 4.523 4.227c.462.48 1.079.708 1.747.708z"/></g><defs><clipPath id="clip0"><path fill="#fff" d="M0 0h161v37H0z"/></clipPath></defs></svg>
